X:137
T:Colonel Robertson
R:Strathspey
B:The Athole Collection
M:C
L:1/8
K:D
B2 B>A B>EE>F|A>d B/A/G/F/ D/E/F/G/ A>d|B2 B>A B>de>f|
d>B d/B/A/F/ E2 E2:|
e>fe>d B/A/B/d/ e2|d>ed>B A/F/A/B/ d>f|e>fe>d e/d/e/f/ g>e|
d>B d/B/A/F/ E2 E>d|e>fe>d B/A/B/d/ e2|d>ed>B A/F/A/B/ d>f|
g>ef>d e>Bd>A|d>A B/A/G/F/ B2E2||

